X:1
T:Troy's Wedding  "(Execution!   Control!  Precision!  Don't run away wi
M:6/8
L:1/8
Q:80
C:Colin Magee
S:Jig
K:HP
|: {g}A{d}A{e}A{Gdc}d2c | \
{g}B{d}B{e}B{gef}e2d | \
{g}c{d}A{e}A{g}ABc |
{g}dcd{gfg}f2d | \
{g}A{d}A{e}A{Gdc}d2c | \
{g}B{d}B{e}B{gef}e2d |
{g}ca{g}age{A}e | \
{g}ABc{Gdc}d3 :: \
{a}ge{A}e{g}ege |
{g}fd{c}d{g}dfd | \
{g}ec{d}A{g}ABc | \
{g}dcd{gfg}f2d|1
{a}ge{A}e{g}ege | \
{g}fdB{G}A2d | \
{g}ca{g}age{A}e |
{g}ABc{Gdc}d3 :: \
{g}Aa{g}aBac | \
a{g}adaea |
fa{g}age{g}c | \
{g}dcd{gfg}f2d | \
{g}Aa{g}aBac |
a{g}adaea | \
fa{g}age{A}e | \
{g}ABc{Gdc}d3:| [ |
{g}A{d}c{G}c{g}ce{A}e | \
{g}Ad{c}d{g}df{e}f | \
{g}ec{d}A{g}ABc |
{g}dcd{gfg}f2d | \
{g}A{d}A{e}A{g}c{d}A{e}A | \
{g}d{e}Ad{g}fd{c}d |
{g}ca{g}age{A}e | \
{g}ABc{Gdc}d3|] [ | \
{g}A{d}c{G}c{g}ce{A}e |
{g}Ad{c}d{g}df{e}f | \
{g}ec{d}A{g}ABc | \
{g}dcd{gfg}f2d |
{g}B{d}A{e}G{g}Bcd | \
{g}Ad{c}d{gfg}f2d | \
{g}ca{g}age{A}e |
{g}ABc{Gdc}d3|]
